public/logos/18_eu/6.svg

<svg xmlns="http://www.w3.org/2000/svg" viewBox="0 0 38 38"  fill-rule="nonzero" stroke-linejoin="round" stroke-miterlimit="2" xmlns:v="https://vecta.io/nano"><path d="M36.72 18.72c0-9.875-8.125-18-18-18s-18 8.125-18 18 8.125 18 18 18 18-8.125 18-18" fill="#202020"/><path d="M18.93 18.72a2.56 2.56 0 0 0-2 .81c-.542.746-.797 1.662-.72 2.58-.122 1.484.151 2.975.79 4.32.468.778 1.312 1.257 2.22 1.26a2.24 2.24 0 0 0 1.92-1 5.18 5.18 0 0 0 .75-3.15 6.77 6.77 0 0 0-.89-3.8 2.44 2.44 0 0 0-2.07-1.02zm-2.67-.18a13.03 13.03 0 0 1 2.34-2 5.18 5.18 0 0 1 2.19-.42 4.35 4.35 0 0 1 3.42 1.5c.949 1.197 1.42 2.706 1.32 4.23.069 2.019-.649 3.988-2 5.49a6 6 0 0 1-4.65 2c-1.232.006-2.439-.341-3.48-1-1.021-.697-1.831-1.663-2.34-2.79-.597-1.538-.873-3.182-.81-4.83a14.18 14.18 0 0 1 1.38-6.63c.925-1.755 2.307-3.227 4-4.26 1.692-1.059 3.644-1.63 5.64-1.65l1.26 1.11-.51.51c-.424-.095-.856-.145-1.29-.15-1.06.022-2.087.371-2.94 1a6.9 6.9 0 0 0-2.4 2.82c-.682 1.607-1.065 3.325-1.13 5.07z" fill="#fff"/></svg>

<?xml version="1.0" encoding="UTF-8" standalone="no"?>
<!DOCTYPE svg PUBLIC "-//W3C//DTD SVG 1.1//EN" "http://www.w3.org/Graphics/SVG/1.1/DTD/svg11.dtd">
<svg width="100%" height="100%" viewBox="0 0 38 38" version="1.1" xmlns="http://www.w3.org/2000/svg" xmlns:xlink="http://www.w3.org/1999/xlink" xml:space="preserve" xmlns:serif="http://www.serif.com/" style="fill-rule:evenodd;clip-rule:evenodd;stroke-linejoin:round;stroke-miterlimit:2;">
    <path d="M36.72,18.72C36.72,8.845 28.595,0.72 18.72,0.72C8.845,0.72 0.72,8.845 0.72,18.72C0.72,28.595 8.845,36.72 18.72,36.72C28.595,36.72 36.72,28.595 36.72,18.72" style="fill:rgb(32,32,32);fill-rule:nonzero;"/>
    <path d="M18.93,18.72C18.177,18.682 17.444,18.979 16.93,19.53C16.388,20.276 16.133,21.192 16.21,22.11C16.088,23.594 16.361,25.085 17,26.43C17.468,27.208 18.312,27.687 19.22,27.69C19.988,27.709 20.715,27.33 21.14,26.69C21.72,25.747 21.983,24.643 21.89,23.54C21.973,22.214 21.663,20.892 21,19.74C20.525,19.075 19.747,18.692 18.93,18.72ZM16.26,18.54C16.958,17.783 17.744,17.112 18.6,16.54C19.291,16.243 20.038,16.099 20.79,16.12C22.097,16.08 23.354,16.632 24.21,17.62C25.159,18.817 25.63,20.326 25.53,21.85C25.599,23.869 24.881,25.838 23.53,27.34C22.352,28.659 20.648,29.392 18.88,29.34C17.648,29.346 16.441,28.999 15.4,28.34C14.379,27.643 13.569,26.677 13.06,25.55C12.463,24.012 12.187,22.368 12.25,20.72C12.168,18.431 12.641,16.156 13.63,14.09C14.555,12.335 15.937,10.863 17.63,9.83C19.322,8.771 21.274,8.2 23.27,8.18L24.53,9.29L24.02,9.8C23.596,9.705 23.164,9.655 22.73,9.65C21.67,9.672 20.643,10.021 19.79,10.65C18.748,11.354 17.918,12.329 17.39,13.47C16.708,15.077 16.325,16.795 16.26,18.54Z" style="fill:white;fill-rule:nonzero;"/>
</svg>
